X:1
T:No.2 from Kinderstücke
T:Felix Mendelssohn (1809 - 1847)
T:Revised and re-edited by: Studio KonKon (CC0 2018)
T:No.2 from Kinderstücke
T:Op.72 No. 2
T:Re-edited / Reprinted © 2018, Studio KonKon Comp.1842 Pub.1874-82, London CC0 Public Domain, no rights reserved Digital Re-scoring of Public Domain Music.
T:Re-edited / Reprinted © 2018, Studio KonKon Comp.1842 Pub.1874-82, London CC0 Public Domain, no rights reserved Digital Re-scoring of Public Domain Music.
C:Felix Mendelssohn
C:(1809 - 1847)
Z:Revised and re-edited by:
Z:Studio KonKon (CC0 2018)
Z:Re-edited / Reprinted © 2018, Studio KonKon
Z:Comp.1842 Pub.1874-82, London
Z:CC0 Public Domain, no rights reserved
Z:Digital Re-scoring of Public Domain Music.
%%score { ( 1 4 ) | ( 2 3 ) }
L:1/8
Q:1/4=40
M:2/4
K:Eb
V:1 treble nm="P1"
V:4 treble 
V:2 bass 
V:3 bass 
V:1
!mp! z/ B,/=A,/B,/ [F_A]/B,/[FA]/B,/ |[Q:1/4=39] [EG]/B,/=A,/B,/[Q:1/4=38] [_A,D]/B,/[A,D]/B,/ | %2
[Q:1/4=35] [G,E]/B,/=A,/B,/[Q:1/4=33] [G,E]/B,/A,/B,/ | %3
[Q:1/4=30] [G,E]/B,/=A,/B,/"^cantabile"[Q:1/4=33] (G[Q:1/4=36]_A | %4
[Q:1/4=40] B[Q:1/4=44]e[Q:1/4=40] d>c) |[Q:1/4=44] B2[Q:1/4=40] GG/>B/ | %6
[Q:1/4=43]{/B} (AG)[Q:1/4=41]!<(! (FG/!<)!A/) |[Q:1/4=44]!>(! (G!>)!!mp!F)GA |!<(! (Bg!<)! f>e) | %9
 d2!p! (eB | AG!<(! FG/!<)!A/) |!>(! (B!>)!!p!G) (eB | AG FG/F/) | E2 F"^cresc."G | %14
 A>=A[Q:1/4=46] B[Q:1/4=47]!<(![Ae]/!<)!f/ |[Q:1/4=44]!>(! [=Ae]!>)![Bd] Bc | %16
 _d>=d!<(! f/e/_d/!<)!e/ |!>(! ([G_d]!>)![Ac])!<(! (a!<)!!>(!e | [G_d]!>)![Ac])!<(! (f!<)!!>(!c | %19
 [=EB]!>)![FA]) c"^dim."B/A/ | (GF[Q:1/4=40] !>!B>[Q:1/4=36]A) | %21
[Q:1/4=34] (G[Q:1/4=31]F)!p![Q:1/4=39] FG/F/ |[Q:1/4=44] (B>e[Q:1/4=46] dA) | GB (F/A/G/F/) | %24
 ([EB]>e[Q:1/4=43] d/B/A/F/) |[Q:1/4=38] GB[Q:1/4=43]E"^cresc."!<(!E | (GF) GG!<)! | %27
!>(! (BA)!>)!!p! (G/F/G/A/ | c/B/A/F/)[Q:1/4=40] EF | G2[Q:1/4=39] E"^cresc."!<(!E | %30
[Q:1/4=41] (GF)[Q:1/4=43] GG!<)! |!>(! (B=A)!>)!"^cresc."!<(! AA | %32
 [=GB]>[EG][Q:1/4=40] [Ge]>!<)!B |!f![Q:1/4=36] g2-[Q:1/4=38] g/(d/f/e/ | %34
[Q:1/4=40] d/c/B/=A/ c/B/"^dim."!>(!e/^F/ |[Q:1/4=35] _A/=G/B/D/[Q:1/4=20] =F/E/[Q:1/4=12]B,/>G/) | %36
[Q:1/4=30] G2!>)!!p![Q:1/4=28] [A,DG]>F |[Q:1/4=31][Q:1/4=35] E2!pp![Q:1/4=40] [F_A]/B,/[FA]/B,/ | %38
[Q:1/4=36] G2[Q:1/4=32] DD |[Q:1/4=29] [G,E]/B,/=A,/B,/[Q:1/4=25] [G,E]/B,/[Q:1/4=20]A,/B,/ | %40
 [G,E]2 !fermata!z2 |] %41
V:2
 E,,2 B,,B,, | B,,2 B,,B,, | [E,,B,,]2 [E,,B,,]2 | [E,,B,,]2 E,/E/F,/E/ | G,/E/C/E/ B,/E/A,/E/ | %5
 G,/E/D/E/ D/E/_D/E/ | C/E/B,/E/ A,/E/F,/E/ | B,/E/D/B,/ E,/E/F,/E/ | G,/E/B,/E/ =A,/C/F/A,/ | %9
 B,/D/B,/_A,/ G,/E/D/E/ | C/E/B,/E/ A,/E/D/B,/ | G,/B,/E/B,/ G,/E/_D/E/ | C/E/B,/E/ A,B,, | %13
 G,/B,/G,/E,/ D,/B,/=E,/B,/ | F,/B,/F,/E,/ D,/B,/C,/B,/ | B,,/F,/B,/_A,/ G,/E/=A,/E/ | %16
 B,/E/B,/_A,/ G,/E/E,/E/ | A,/E/A,/B,/ C/E/A/E/ | B,/E/A,/G,/ A,/C/F/C/ | G,/C/F,/G,/ A,/C/F/C/ | %20
 A,/B,/D/B,/ G,A, | B,B,, =A,/B,/_A,/B,/ | G,/B,/G,/B,/ F,/B,/D,/B,/ | E,/B,/G,/E,/ A,/B,/A,/B,/ | %24
 G,/B,/G,/B,/ F,/B,/D,/B,/ | E,/G,/E,/B,,/ G,,G,, | A,,2 B,,B,, | C,2 =D/B,/D/B,/ | %28
 [G,E]/B,/C/A,/ G,/B,/B,, | E,2 G,,G,, | =A,,2 B,,B,, | C,2 C,C, | B,,/G,/B,/G,/ B,,/G,/B,/G,/ | %33
 B,,/G,/B,/G,/ E z | z4 | z4 | z2 B,,2 | E,,2 B,,B,, | B,,2 B,,B,, | [E,,B,,]2 [E,,B,,]2 | %40
 [E,,B,,]2 !fermata!z2 |] %41
V:3
 x2 D,,2 | E,,2 B,,,2 | x4 | x4 | x4 | x4 | x4 | x4 | x4 | x4 | x4 | x4 | x4 | E,2 x2 | x4 | x4 | %16
 x4 | x4 | x4 | x4 | x4 | x4 | B,,2 x2 | B,,2 x2 | B,,2 x2 | x4 | x4 | x2 A,2 | x4 | x2 G,,,2 | %30
 =A,,,2 B,,,2 | C,,2 x2 | x4 | x4 | x4 | x4 | x4 | x2 D,,2 | E,,2 B,,,2 | x4 | x4 |] %41
V:4
 x4 | x4 | x4 | x4 | x4 | x4 | x4 | x4 | x4 | x4 | x4 | x4 | z2 F/E/D/[I:staff +1]A,/ | x4 | x4 | %15
 x4 | x4 | x4 | x4 | x4 | x2[I:staff -1] z/ E/C/F/ | E/B,/D/B,/ x2 | x4 | x2 D2 | x4 | %25
 x2 _D/B,/D/B,/ | C/E/F/E/ _D/E/D/E/ | C/E/A/E/ x2 | x3 D/B,/ | E/D/_D/C/ D/B,/D/B,/ | %30
 C/E/F/E/ _D/E/D/E/ | C/E/_G/F/ G/E/G/E/ | x4 | [GB]2 x2 | x4 | x4 | x4 | G,/B,/=A,/B,/ x2 | %38
 E/B,/=A,/B,/ _A,/B,/A,/B,/ | x4 | x4 |] %41

